icons/sword.svg

<svg width="24" height="24" viewBox="0 0 24 24" fill="none" xmlns="http://www.w3.org/2000/svg">
<path d="M7.59601 17.9371L4.59801 20.7771C4.44322 20.9185 4.24115 20.9969 4.03151 20.9969C3.82187 20.9969 3.6198 20.9185 3.46501 20.7771L2.23501 19.6121C2.16025 19.5441 2.10052 19.4613 2.05964 19.3689C2.01876 19.2765 1.99765 19.1766 1.99765 19.0756C1.99765 18.9745 2.01876 18.8746 2.05964 18.7822C2.10052 18.6899 2.16025 18.607 2.23501 18.5391L5.23301 15.6991C5.30777 15.6311 5.3675 15.5483 5.40838 15.4559C5.44926 15.3635 5.47037 15.2636 5.47037 15.1626C5.47037 15.0615 5.44926 14.9616 5.40838 14.8692C5.3675 14.7769 5.30777 14.694 5.23301 14.6261L3.14001 12.6431C3.06651 12.5742 3.00785 12.4911 2.96761 12.3987C2.92738 12.3064 2.90641 12.2068 2.90601 12.1061C2.90641 12.0054 2.92738 11.9058 2.96761 11.8134C3.00785 11.7211 3.06651 11.6379 3.14001 11.5691L4.41001 10.3661C4.56358 10.222 4.76646 10.1422 4.97701 10.1431C5.19001 10.1431 5.39301 10.2231 5.54401 10.3661L13.223 17.6411C13.2964 17.7098 13.355 17.7928 13.3952 17.885C13.4354 17.9771 13.4565 18.0765 13.457 18.1771C13.4566 18.2778 13.4356 18.3774 13.3954 18.4697C13.3552 18.562 13.2965 18.6452 13.223 18.7141L11.953 19.9181C11.7993 20.0618 11.5964 20.1412 11.386 20.1401C11.1756 20.1412 10.9727 20.0618 10.819 19.9181L8.73001 17.9371C8.57629 17.7934 8.37342 17.714 8.16301 17.7151C7.95294 17.7142 7.75048 17.7936 7.59701 17.9371H7.59601Z" stroke="white" stroke-width="2" stroke-linecap="round" stroke-linejoin="round"/>
<path d="M7 11.747L14.611 3.019L21 3L20.98 9.052L11.767 16.262" stroke="white" stroke-width="2" stroke-linecap="round" stroke-linejoin="round"/>
<path d="M9.384 14.005L15.392 8.31201" stroke="white" stroke-width="2" stroke-linecap="round" stroke-linejoin="round"/>
</svg>

<svg
  width="24"
  height="24"
  viewBox="0 0 24 24"
  xmlns="http://www.w3.org/2000/svg"
  fill="none"
  stroke="currentColor"
  stroke-width="2"
  stroke-linecap="round"
  stroke-linejoin="round"
>
  <path d="M7.596 17.937l-2.998 2.84a.84.84 0 0 1-1.133 0l-1.23-1.165a.726.726 0 0 1 0-1.073l2.998-2.84a.726.726 0 0 0 0-1.073L3.14 12.643a.74.74 0 0 1-.172-.83.74.74 0 0 1 .172-.244l1.27-1.203a.823.823 0 0 1 .567-.223c.213 0 .416.08.567.223l7.679 7.275a.738.738 0 0 1 .172.829.74.74 0 0 1-.172.244l-1.27 1.204a.824.824 0 0 1-.567.222.824.824 0 0 1-.567-.222l-2.089-1.98a.824.824 0 0 0-.567-.223.824.824 0 0 0-.566.222h-.001z" />
  <path d="M7 11.747l7.611-8.728L21 3l-.02 6.052-9.213 7.21" />
  <path d="M9.384 14.005l6.008-5.693" />
</svg>
